public/assets/imgs/downloadTabelas.svg

<svg fill="none" height="44" viewBox="0 0 50 44" width="50" xmlns="http://www.w3.org/2000/svg"><g clip-rule="evenodd" fill-rule="evenodd"><path d="m21.6751 3.67541c11.7367-4.372816 19.1483-2.14746 21.4877-.32682.1183.09204.1875.23351.1875.38337v24.15274c0 .2683-.2175.4858-.4858.4858-2.5318 0-6.5742.2835-10.6002.8226-4.0359.5404-7.9978 1.3304-10.4004 2.3252-.001.0004-.0019.0007-.0028.0011-.1057.0438-.2218.0484-.3284.0157-.0157-.0048-.0311-.0104-.0463-.0168-2.4005-.9939-6.3602-1.7531-10.3968-2.2625-4.0254-.508-8.06934-.7608-10.603818-.7608-.128837 0-.252397-.0512-.3435-.1423-.0911022-.0911-.142282-.2147-.142282-.3435l.00000282-24.27724c0-.14986.06916588-.29133.18742918-.38337 2.339418-1.82064 9.751028-4.045995 21.487668.32682z" fill="#000"/><path d="m21.5327 31.5351c.1066.0327.2227.0281.3284-.0157l.0017-.0007.0011-.0004c2.4027-.9948 6.3645-1.7848 10.4004-2.3252 4.026-.5391 8.0684-.8226 10.6002-.8226.2683 0 .4858-.2175.4858-.4858v-24.15274c0-.14986-.0692-.29133-.1875-.38337-2.3394-1.82064-9.751-4.045996-21.4877.32682-11.73664-4.372815-19.14825-2.14746-21.487668-.32682-.1182633.09204-.18742918.23351-.18742918.38337l-.00000282 24.27724c0 .1288.0511798.2524.142282.3435.091103.0911.214663.1423.3435.1423 2.534478 0 6.578418.2528 10.603818.7608 4.0366.5094 7.9963 1.2686 10.3968 2.2625.0152.0064.0306.012.0463.0168zm.7562-26.21225c-.3959.1475-.8317.1475-1.2276 0-10.5043-3.91368-17.02247-2.22924-19.30323-.91209v22.34354c2.58153.066 6.07957.3191 9.55163.7573 3.8081.4806 7.7199 1.1994 10.365 2.1916 2.6397-.9937 6.5465-1.7425 10.3563-2.2526 3.4721-.4649 6.9742-.7454 9.5612-.8188v-22.22104c-2.2808-1.31715-8.7989-3.00159-19.3033.91209z" fill="#fff"/><path d="m21.675 2.61694c-9.5114-4.51761-15.57225-2.216379-17.50745-.2853-.09132.09113-.14265.21485-.14265.34387v22.02979c0 .2683.21749.4858.48578.4858.9674 0 2.25646.2501 3.73419.6771 1.46987.4248 3.09463 1.015 4.72223 1.6743 3.2545 1.3184 6.4931 2.9018 8.4786 3.9564.0005.0003.0009.0005.0014.0008.143.0759.3138.0754.4558 0 .0005-.0003.0009-.0005.0014-.0008 1.9855-1.0546 5.2241-2.638 8.4785-3.9564 1.6276-.6593 3.2524-1.2495 4.7223-1.6743 1.4777-.427 2.7668-.6771 3.7342-.6771.2683 0 .4858-.2175.4858-.4858v-22.02979c0-.12902-.0514-.25274-.1427-.34387-1.9352-1.931079-7.996-4.23231-17.5074.2853z" fill="#000"/><path d="m22.4293 4.20499c-.4773.2267-1.0313.2267-1.5086 0-8.3502-3.966062-13.4116-2.21907-15.13773-.94535v20.26556c.91816.1222 1.92301.3573 2.94998.654 1.54785.4473 3.23325 1.0611 4.89425 1.7339 3.0133 1.2207 6.0045 2.6597 8.0478 3.7206 2.0433-1.0609 5.0344-2.4999 8.0478-3.7206 1.661-.6728 3.3464-1.2866 4.8942-1.7339 1.027-.2967 2.0318-.5318 2.95-.654v-20.26556c-1.7261-1.27372-6.7876-3.020712-15.1377.94535zm-1.3494 25.74111c.0001 0 .0002-.0001.0003-.0001-.0001 0-.0002.0001-.0003.0001zm.3658 1.5528c-1.9855-1.0546-5.2241-2.638-8.4786-3.9564-1.6276-.6593-3.25236-1.2495-4.72223-1.6743-1.47773-.427-2.76679-.6771-3.73419-.6771-.26829 0-.48578-.2175-.48578-.4858v-22.02979c0-.12902.05133-.25274.14265-.34387 1.9352-1.931079 7.99605-4.23231 17.50745.2853 9.5114-4.51761 15.5722-2.216379 17.5074-.2853.0913.09113.1427.21485.1427.34387v22.02979c0 .2683-.2175.4858-.4858.4858-.9674 0-2.2565.2501-3.7342.6771-1.4699.4248-3.0947 1.015-4.7223 1.6743-3.2544 1.3184-6.493 2.9018-8.4785 3.9564l-.0014.0008c-.142.0754-.3128.0759-.4558 0z" fill="#fff"/><path d="m20.7266 30.997v-27.4351h1.758v27.4351z" fill="#fff"/><path d="m47.8144 29.5397c1.7803 0 2.9524 3.2069 1.5949 4.2658l-12.1682 9.4917c-.2994.2335-1.5168.2927-1.8175.0605l-12.2862-9.4885c-1.3666-1.0554-.1339-4.2138 1.6511-4.2138h2.3397c.4448 0 .8053-.8866.8053-1.2955v-12.8848c0-.4088.3605-1.2491.8053-1.2491h12.645s.9242-.0437 1.4574.5089c.5143.5331.5089 1.388.5089 1.388v11.7281c0 .4088.3196 1.6887.7643 1.6887z" fill="#000"/><path d="m46.6589 31.9381c.3527 0 .5055.4463.2269.6625l-10.2963 7.9901c-.1328.1031-.3185.1037-.452.0015l-10.431-7.9902c-.2808-.2151-.1287-.6639.2251-.6639h4.2296c.2045 0 .3702-.1657.3702-.3701v-13.9799c0-.2044.1657-.3701.3701-.3701h9.3886c.2045 0 .3702.1657.3702.3701v13.9799c0 .2044.1657.3701.3701.3701z" fill="#000"/><path d="m46.6587 31.221c1.0358 0 1.4849 1.3111.6665 1.9461l-10.2963 7.9902c-.3902.3028-.9356.3045-1.3277.0041l-10.431-7.9901c-.825-.632-.3781-1.9503.6611-1.9503h3.8827v-13.6329c0-.6005.4868-1.0872 1.0872-1.0872h9.3887c.6004 0 1.0872.4867 1.0872 1.0872v13.6329zm-1.0131 1.4342h-4.6155c-.6004 0-1.0872-.4868-1.0872-1.0872v-13.6329h-8.6947v13.6329c0 .6004-.4867 1.0872-1.0872 1.0872h-3.2061l9.4061 7.205z" fill="#fff"/></g></svg>

<svg width="50" height="44" viewBox="0 0 50 44" fill="none" xmlns="http://www.w3.org/2000/svg">
<path fill-rule="evenodd" clip-rule="evenodd" d="M21.6751 3.67541C33.4118 -0.697406 40.8234 1.52795 43.1628 3.34859C43.2811 3.44063 43.3503 3.5821 43.3503 3.73196V27.8847C43.3503 28.153 43.1328 28.3705 42.8645 28.3705C40.3327 28.3705 36.2903 28.654 32.2643 29.1931C28.2284 29.7335 24.2665 30.5235 21.8639 31.5183C21.8629 31.5187 21.862 31.519 21.8611 31.5194C21.7554 31.5632 21.6393 31.5678 21.5327 31.5351C21.517 31.5303 21.5016 31.5247 21.4864 31.5183C19.0859 30.5244 15.1262 29.7652 11.0896 29.2558C7.0642 28.7478 3.02026 28.495 0.485782 28.495C0.356945 28.495 0.233385 28.4438 0.142282 28.3527C0.0511798 28.2616 0 28.138 0 28.0092L2.82379e-06 3.73196C2.82379e-06 3.5821 0.0691687 3.44063 0.187432 3.34859C2.52685 1.52795 9.93846 -0.697405 21.6751 3.67541Z" fill="black"/>
<path fill-rule="evenodd" clip-rule="evenodd" d="M21.5327 31.5351C21.6393 31.5678 21.7554 31.5632 21.8611 31.5194L21.8628 31.5187L21.8639 31.5183C24.2666 30.5235 28.2284 29.7335 32.2643 29.1931C36.2903 28.654 40.3327 28.3705 42.8645 28.3705C43.1328 28.3705 43.3503 28.153 43.3503 27.8847V3.73196C43.3503 3.5821 43.2811 3.44063 43.1628 3.34859C40.8234 1.52795 33.4118 -0.697406 21.6751 3.67541C9.93846 -0.697405 2.52685 1.52795 0.187432 3.34859C0.0691687 3.44063 2.82379e-06 3.5821 2.82379e-06 3.73196L0 28.0092C0 28.138 0.0511798 28.2616 0.142282 28.3527C0.233385 28.4438 0.356945 28.495 0.485782 28.495C3.02026 28.495 7.0642 28.7478 11.0896 29.2558C15.1262 29.7652 19.0859 30.5244 21.4864 31.5183C21.5016 31.5247 21.517 31.5303 21.5327 31.5351ZM22.2889 5.32285C21.893 5.47035 21.4572 5.47035 21.0613 5.32285C10.557 1.40917 4.03883 3.09361 1.75807 4.41076L1.75807 26.7543C4.3396 26.8203 7.83764 27.0734 11.3097 27.5116C15.1178 27.9922 19.0296 28.711 21.6747 29.7032C24.3144 28.7095 28.2212 27.9607 32.031 27.4506C35.5031 26.9857 39.0052 26.7052 41.5922 26.6318V4.41076C39.3114 3.09361 32.7933 1.40917 22.2889 5.32285Z" fill="white"/>
<path fill-rule="evenodd" clip-rule="evenodd" d="M21.675 2.61694C12.1636 -1.90067 6.10275 0.400561 4.16755 2.33164C4.07623 2.42277 4.0249 2.54649 4.0249 2.67551V24.7053C4.0249 24.9736 4.24239 25.1911 4.51068 25.1911C5.47808 25.1911 6.76714 25.4412 8.24487 25.8682C9.71474 26.293 11.3395 26.8832 12.9671 27.5425C16.2216 28.8609 19.4602 30.4443 21.4457 31.4989C21.4462 31.4992 21.4466 31.4994 21.4471 31.4997C21.5901 31.5756 21.7609 31.5751 21.9029 31.4997C21.9034 31.4994 21.9038 31.4992 21.9043 31.4989C23.8898 30.4443 27.1284 28.8609 30.3828 27.5425C32.0104 26.8832 33.6352 26.293 35.1051 25.8682C36.5828 25.4412 37.8719 25.1911 38.8393 25.1911C39.1076 25.1911 39.3251 24.9736 39.3251 24.7053V2.67551C39.3251 2.54649 39.2737 2.42277 39.1824 2.33164C37.2472 0.400561 31.1864 -1.90067 21.675 2.61694Z" fill="black"/>
<path fill-rule="evenodd" clip-rule="evenodd" d="M22.4293 4.20499C21.952 4.43169 21.398 4.43169 20.9207 4.20499C12.5705 0.238928 7.5091 1.98592 5.78297 3.25964V23.5252C6.70113 23.6474 7.70598 23.8825 8.73295 24.1792C10.2808 24.6265 11.9662 25.2403 13.6272 25.9131C16.6405 27.1338 19.6317 28.5728 21.675 29.6337C23.7183 28.5728 26.7094 27.1338 29.7228 25.9131C31.3838 25.2403 33.0692 24.6265 34.617 24.1792C35.644 23.8825 36.6488 23.6474 37.567 23.5252V3.25964C35.8409 1.98592 30.7794 0.238928 22.4293 4.20499ZM21.0799 29.9461C21.08 29.9461 21.0801 29.946 21.0802 29.946C21.0801 29.946 21.08 29.9461 21.0799 29.9461ZM21.4457 31.4989C19.4602 30.4443 16.2216 28.8609 12.9671 27.5425C11.3395 26.8832 9.71474 26.293 8.24487 25.8682C6.76714 25.4412 5.47808 25.1911 4.51068 25.1911C4.24239 25.1911 4.0249 24.9736 4.0249 24.7053V2.67551C4.0249 2.54649 4.07623 2.42277 4.16755 2.33164C6.10275 0.400561 12.1636 -1.90067 21.675 2.61694C31.1864 -1.90067 37.2472 0.400561 39.1824 2.33164C39.2737 2.42277 39.3251 2.54649 39.3251 2.67551V24.7053C39.3251 24.9736 39.1076 25.1911 38.8393 25.1911C37.8719 25.1911 36.5828 25.4412 35.1051 25.8682C33.6352 26.293 32.0104 26.8832 30.3828 27.5425C27.1284 28.8609 23.8898 30.4443 21.9043 31.4989L21.9029 31.4997C21.7609 31.5751 21.5901 31.5756 21.4471 31.4997L21.4457 31.4989Z" fill="white"/>
<path fill-rule="evenodd" clip-rule="evenodd" d="M20.7266 30.997V3.5619H22.4846V30.997H20.7266Z" fill="white"/>
<path fill-rule="evenodd" clip-rule="evenodd" d="M47.8144 29.5397C49.5947 29.5397 50.7668 32.7466 49.4093 33.8055L37.2411 43.2972C36.9417 43.5307 35.7243 43.5899 35.4236 43.3577L23.1374 33.8692C21.7708 32.8138 23.0035 29.6554 24.7885 29.6554L27.1282 29.6554C27.573 29.6554 27.9335 28.7688 27.9335 28.3599L27.9335 15.4751C27.9335 15.0663 28.294 14.226 28.7388 14.226L41.3838 14.226C41.3838 14.226 42.308 14.1823 42.8412 14.7349C43.3555 15.268 43.3501 16.1229 43.3501 16.1229L43.3501 27.851C43.3501 28.2598 43.6697 29.5397 44.1144 29.5397L47.8144 29.5397Z" fill="black"/>
<path fill-rule="evenodd" clip-rule="evenodd" d="M46.6589 31.9381C47.0116 31.9381 47.1644 32.3844 46.8858 32.6006L36.5895 40.5907C36.4567 40.6938 36.271 40.6944 36.1375 40.5922L25.7065 32.602C25.4257 32.3869 25.5778 31.9381 25.9316 31.9381L30.1612 31.9381C30.3657 31.9381 30.5314 31.7724 30.5314 31.568L30.5314 17.5881C30.5314 17.3837 30.6971 17.218 30.9015 17.218L40.2901 17.218C40.4946 17.218 40.6603 17.3837 40.6603 17.5881L40.6603 31.568C40.6603 31.7724 40.826 31.9381 41.0304 31.9381L46.6589 31.9381Z" fill="black"/>
<path fill-rule="evenodd" clip-rule="evenodd" d="M46.6587 31.221C47.6945 31.221 48.1436 32.5321 47.3252 33.1671L37.0289 41.1573C36.6387 41.4601 36.0933 41.4618 35.7012 41.1614L25.2702 33.1713C24.4452 32.5393 24.8921 31.221 25.9313 31.221L29.814 31.221L29.814 17.5881C29.814 16.9876 30.3008 16.5009 30.9012 16.5009L40.2899 16.5009C40.8903 16.5009 41.3771 16.9876 41.3771 17.5881L41.3771 31.221L46.6587 31.221ZM45.6456 32.6552L41.0301 32.6552C40.4297 32.6552 39.9429 32.1684 39.9429 31.568L39.9429 17.9351L31.2482 17.9351L31.2482 31.568C31.2482 32.1684 30.7615 32.6552 30.161 32.6552L26.9549 32.6552L36.361 39.8602L45.6456 32.6552Z" fill="white"/>
</svg>
